source/images/icons/basket_icon.svg

<svg width="60" height="60" viewBox="0 0 60 60" fill="none" xmlns="http://www.w3.org/2000/svg">
<rect width="60" height="60" fill="white"/>
<path fill-rule="evenodd" clip-rule="evenodd" d="M27.6609 25.8755L27.8935 28.6667H32.1065L32.3391 25.8755C32.4531 24.507 31.3732 23.3333 30 23.3333C28.6268 23.3333 27.5469 24.507 27.6609 25.8755ZM33.4444 28.6667L33.6678 25.9862C33.8466 23.8404 32.1533 22 30 22C27.8467 22 26.1534 23.8404 26.3322 25.9862L26.5556 28.6667H23.3469H22L22.1905 30L23.0063 35.7105C23.1939 37.0242 24.3191 38 25.6461 38H34.3539C35.6809 38 36.8061 37.0242 36.9937 35.7105L37.8095 30L38 28.6667H36.6531H33.4444ZM33.3333 30H33.2801L33.0579 32.6667H36.0817L36.4627 30H33.3333ZM31.9421 30H28.0579L28.2801 32.6667H31.7199L31.9421 30ZM26.7199 30H26.6667H23.5373L23.9183 32.6667H26.9421L26.7199 30ZM28.6134 36.6667L28.3912 34H31.6088L31.3866 36.6667H28.6134ZM32.9468 34L32.7245 36.6667H34.3539C35.0174 36.6667 35.58 36.1788 35.6738 35.5219L35.8912 34H32.9468ZM27.0532 34L27.2755 36.6667H25.6461C24.9826 36.6667 24.42 36.1788 24.3262 35.5219L24.1088 34H27.0532Z" fill="#333333"/>
</svg>

<svg viewBox="0 0 60 60" fill="none" xmlns="http://www.w3.org/2000/svg"><path fill="#fff" d="M0 0h60v60h-60z"/><path fill-rule="evenodd" clip-rule="evenodd" d="m27.66 25.88.23 2.79h4.22l.23-2.8a2.35 2.35 0 1 0-4.68 0Zm5.78 2.79.23-2.68a3.68 3.68 0 1 0-7.34 0l.23 2.68h-4.56l.2 1.33.8 5.71a2.67 2.67 0 0 0 2.65 2.29h8.7c1.33 0 2.46-.98 2.64-2.29l.82-5.71.19-1.33h-4.55Zm-.1 1.33h-.06l-.22 2.67h3.02l.38-2.67h-3.13Zm-1.4 0h-3.88l.22 2.67h3.44l.22-2.67Zm-5.22 0h-3.18l.38 2.67h3.02l-.22-2.67Zm1.9 6.67-.23-2.67h3.22l-.22 2.67h-2.78Zm4.33-2.67-.23 2.67h1.63c.67 0 1.23-.5 1.32-1.15l.22-1.52h-2.94Zm-5.9 0 .23 2.67h-1.63c-.67 0-1.23-.5-1.32-1.15l-.22-1.52h2.94Z" fill="#333"/></svg>
